!!!OTL: 11. Dobranoch
!!!Genre:	Dobranoch
!!!Mode:	Minor
!!!Listening/dance:	listening
!!!One_Mode:	no
!!!Orig_tonic: A
**kern
*I"P1
*clefG2
*k[b-e-]
*g:
*M3/4
*>A
!LO:TX:a:i:t=G-minor
(4d
=1
2g
4a
=2
2b-
4cc
=3
2.dd
=4
2.dd)
=5
(2dd
8ccL
8b-J
=6
2b-
8aL
8gJ
=7
2.b-
=8
2b-)
*>bM
*B-:
!LO:TX:a:i:t=Bb-major
(4f
=9
2b-
4cc
=10
2dd
4ee-
=11
2.ff
=12
2.ff)
=13
(4ff
4dd
12ee-L
12dd
12ccJ
=14
4cc
4dd
12ee-L
12dd
12ccJ
=15
2.dd
=16
2.dd)
*>eM
*>bM
*c:
!LO:TX:a:i:t=C-minor
=17
4dd
4gg
4ff#X
=18
4.gg
8ffn
8ee-L
8ddJ
=19
4cc
4dd
12ee-L
12dd
12ccJ
=20
2.cc
*>eM
*>bM
*B-:
!LO:TX:a:i:t=Bb-major
=21
4cc
4ff
4een
=22
4.ff
8ee-X
8ddL
8ccJ
=23
4b-
4cc
8ddL
8ccJ
=24
2.b-
*>eM
*>bM
*C:frey
!LO:TX:a:i:t=C-freygish
=25
4f
4b-
8aL
8b-J
=26
4cc
4dd-X
8eenL
8ffJ
=27
2.cc
=28
2cc
4b-
*>eM
*g:
!LO:TX:a:i:t=G-minor
=29
2ddn
8ccL
8b-J
=30
2b-
8aL
8gJ
=31
2.g
*>eM1
=32
2g
4d
*>eM2
=33:|!
2g
*>bM
*B-:
!LO:TX:a:i:t=Bb-major
8fL
8b-J
=34!|:
*>B
2.dd
=35
2dd
8ccL
8b-J
=36
4cc
4dd
4dd
=37
2.dd
=38
4f
4ff
4ee-
=39
2dd
8ccL
8b-J
=40
4cc
4dd
4dd
=41
2dd
4cc
*>eM
*>bM
*C:frey
!LO:TX:a:i:t=C-freygish
=42
4cc
4dd-X
4dd-
=43
4.dd-X
8een
8ffL
8dd-J
=44
2.cc
=45
2cc
4b-
*>eM
*g:
!LO:TX:a:i:t=G-minor
=46
2ddn
8ccL
8b-J
=47
2b-
8aL
8gJ
=48
2.g
*>eM1
=49
2g
8fL
8b-J
*>eM2
=50:|!
2g
4r
==
*-
